src/standard/bank-safe.svg

<svg xmlns="http://www.w3.org/2000/svg" viewBox="0 0 36 36">
  <path d="M31 4.38H5a.62.62 0 0 0-.62.62v26a.62.62 0 0 0 .62.62h26a.62.62 0 0 0 .62-.62V5a.62.62 0 0 0-.62-.62Zm-.62 26H5.62V5.62h24.76Z"/>
  <path d="M9 10.62a.62.62 0 0 0 .62-.62v-.38h16.76v16.76H9.62V26a.62.62 0 0 0-1.24 0v1a.62.62 0 0 0 .62.62h18a.62.62 0 0 0 .62-.62V9a.62.62 0 0 0-.62-.62H9a.62.62 0 0 0-.62.62v1a.62.62 0 0 0 .62.62Z"/>
  <path d="M8 16.62h2a.62.62 0 0 0 .62-.62v-4a.62.62 0 0 0-.62-.62H8a.62.62 0 0 0-.62.62v4a.62.62 0 0 0 .62.62Zm.62-4h.76v2.76h-.76Zm-.62 12h2a.62.62 0 0 0 .62-.62v-4a.62.62 0 0 0-.62-.62H8a.62.62 0 0 0-.62.62v4a.62.62 0 0 0 .62.62Zm.62-4h.76v2.76h-.76Zm6.94 1.82a.61.61 0 0 0 .88 0L17.92 21a3.64 3.64 0 0 0 4.16 0l1.48 1.48a.62.62 0 0 0 .88-.88L23 20.08a3.64 3.64 0 0 0 0-4.16l1.48-1.48c.58-.56-.32-1.46-.88-.88L22.08 15a3.64 3.64 0 0 0-4.16 0l-1.48-1.48c-.56-.58-1.46.32-.88.88L17 15.92a3.64 3.64 0 0 0 0 4.16l-1.48 1.48a.61.61 0 0 0 .04.88ZM22.38 18a2.38 2.38 0 0 1-4.75 0 2.38 2.38 0 0 1 4.75 0Z"/>
  <circle cx="20" cy="18" r=".62"/>
</svg>

<svg id="b5266856-b09f-40fc-a7f2-d1b856a7a846" data-name="Icon" xmlns="http://www.w3.org/2000/svg" viewBox="0 0 36 36">
  <title>Bank safe icon - Black</title>
<desc>money, profit, finances, financial, fintech, dollars, yens, euros, pounds, security, objects</desc>
<metadata><?xpacket begin="﻿" id="W5M0MpCehiHzreSzNTczkc9d"?>
<x:xmpmeta xmlns:x="adobe:ns:meta/" x:xmptk="Adobe XMP Core 8.0-c001 1.000000, 0000/00/00-00:00:00        ">
   <rdf:RDF xmlns:rdf="http://www.w3.org/1999/02/22-rdf-syntax-ns#">
      <rdf:Description rdf:about=""
            xmlns:xmp="http://ns.adobe.com/xap/1.0/"
            xmlns:dc="http://purl.org/dc/elements/1.1/"
            xmlns:cq="http://www.day.com/jcr/cq/1.0"
            xmlns:tiff="http://ns.adobe.com/tiff/1.0/">
         <xmp:rhcc-effective-on>2023-12-08T17:35:22.484Z</xmp:rhcc-effective-on>
         <xmp:rhcc-metadata-complete-moderator>pending</xmp:rhcc-metadata-complete-moderator>
         <xmp:rhcc-translation-id>TRAcaebf50b-7df8-42e9-b14e-b5b5cc19d523</xmp:rhcc-translation-id>
         <xmp:brand-content-type>Icon</xmp:brand-content-type>
         <xmp:CreateDate>2023-12-08T17:35:22.484Z</xmp:CreateDate>
         <xmp:rhcc-effective-on-set-on-upload>true</xmp:rhcc-effective-on-set-on-upload>
         <xmp:rhcc-metadata-complete-uploader>pending</xmp:rhcc-metadata-complete-uploader>
         <xmp:rhcc-file-last-modified>2023-12-08T17:35:31.849Z</xmp:rhcc-file-last-modified>
         <xmp:rhcc-audience>rhcc-audience:internal</xmp:rhcc-audience>
         <xmp:rhcc-rights-restricted>no</xmp:rhcc-rights-restricted>
         <xmp:brand-content-subtype>Icon</xmp:brand-content-subtype>
         <xmp:rhcc-derivative-id>DERcaebf50b-7df8-42e9-b14e-b5b5cc19d523</xmp:rhcc-derivative-id>
         <xmp:brand-logo-color>Black</xmp:brand-logo-color>
         <xmp:rhcc-notify-portal-subscribers-on-change>yes</xmp:rhcc-notify-portal-subscribers-on-change>
         <dc:format>image/svg+xml</dc:format>
         <dc:modified>2024-02-09T20:29:17.902Z</dc:modified>
         <dc:title>
            <rdf:Alt>
               <rdf:li xml:lang="x-default">Bank safe icon - Black</rdf:li>
            </rdf:Alt>
         </dc:title>
         <dc:description>
            <rdf:Alt>
               <rdf:li xml:lang="x-default">money, profit, finances, financial, fintech, dollars, yens, euros, pounds, security, objects</rdf:li>
            </rdf:Alt>
         </dc:description>
         <cq:lastReplicationAction_scene7>Activate</cq:lastReplicationAction_scene7>
         <cq:lastReplicationAction_publish>Activate</cq:lastReplicationAction_publish>
         <cq:lastReplicated_publish>2024-02-09T22:16:09.986Z</cq:lastReplicated_publish>
         <cq:lastReplicatedBy>workflow-process-service</cq:lastReplicatedBy>
         <cq:lastReplicationAction>Activate</cq:lastReplicationAction>
         <cq:lastReplicatedBy_publish>workflow-process-service</cq:lastReplicatedBy_publish>
         <cq:isDelivered>true</cq:isDelivered>
         <cq:lastReplicated>2024-02-09T22:16:09.986Z</cq:lastReplicated>
         <cq:lastReplicatedBy_scene7>workflow-process-service</cq:lastReplicatedBy_scene7>
         <cq:lastReplicated_scene7>2024-02-09T22:16:09.986Z</cq:lastReplicated_scene7>
         <tiff:ImageLength>36</tiff:ImageLength>
         <tiff:ImageWidth>36</tiff:ImageWidth>
      </rdf:Description>
   </rdf:RDF>
</x:xmpmeta>
                                                                                                    
                                                                                                    
                                                                                                    
                                                                                                    
                                                                                                    
                                                                                                    
                                                                                                    
                                                                                                    
                                                                                                    
                                                                                                    
                                 
<?xpacket end="w"?></metadata>
<g>
    <path d="M31,4.38H5A.62.62,0,0,0,4.38,5V31a.62.62,0,0,0,.62.62H31a.62.62,0,0,0,.62-.62V5A.62.62,0,0,0,31,4.38Zm-.62,26H5.62V5.62H30.38Z"/>
    <path d="M9,10.62A.62.62,0,0,0,9.62,10V9.62H26.38V26.38H9.62V26a.62.62,0,0,0-1.24,0v1a.62.62,0,0,0,.62.62H27a.62.62,0,0,0,.62-.62V9A.62.62,0,0,0,27,8.38H9A.62.62,0,0,0,8.38,9v1A.62.62,0,0,0,9,10.62Z"/>
    <path d="M8,16.62h2a.62.62,0,0,0,.62-.62V12a.62.62,0,0,0-.62-.62H8a.62.62,0,0,0-.62.62v4A.62.62,0,0,0,8,16.62Zm.62-4h.76v2.76H8.62Z"/>
    <path d="M8,24.62h2a.62.62,0,0,0,.62-.62V20a.62.62,0,0,0-.62-.62H8a.62.62,0,0,0-.62.62v4A.62.62,0,0,0,8,24.62Zm.62-4h.76v2.76H8.62Z"/>
    <path d="M15.56,22.44a.61.61,0,0,0,.88,0L17.92,21a3.64,3.64,0,0,0,4.16,0l1.48,1.48a.62.62,0,0,0,.88-.88L23,20.08a3.64,3.64,0,0,0,0-4.16l1.48-1.48c.58-.56-.32-1.46-.88-.88L22.08,15a3.64,3.64,0,0,0-4.16,0l-1.48-1.48c-.56-.58-1.46.32-.88.88L17,15.92a3.64,3.64,0,0,0,0,4.16l-1.48,1.48A.61.61,0,0,0,15.56,22.44ZM22.38,18a2.38,2.38,0,0,1-4.75,0A2.38,2.38,0,0,1,22.38,18Z"/>
    <circle cx="20" cy="18" r="0.62"/>
  </g>
</svg>
